X:3
T:Captain Horne
R:Strathspey
M:C
L:1/8
C:Traditional
Z:RSPBA MAP list. https://www.rspba.org/documents/prescribed/CaptainHorne.pdf
Q:"112 bpm"
K:D
[|: {g}f>A {gAGAG}A2 {g}B<{d}G {dc}d>e | {g}f>A {gAGAG}A2 {g}B<d {gdG}d>e | {g}f>A {gAGAG}A2 {g}B<{d}G {gf}g2 | {a}f<a {ef}e>d {g}B<d {gdG}d>e :|]
[|: {gfg}f2 {g}f/e/d {gfg}f2 {g}f<a | {fg}f2 {g}f/e/d {g}e>f {ag}a2 | {fg}f2 {g}f/e/d {g}e>f {gf}g>e | {ag}a>f {gef}e>d {g}B<d ["1" {gdG}d>e ["2" {gdG}d2 :|]
